X: 151
T: La Bienfacile
%R: reel, march
B: Chas & Sam Thompson "Twenty Four Country Dances for the Year 1782", London 1782, p.76 #1
F: http://www.vwml.org/browse/browse-collections-dance-tune-books/browse-thompsons1782
Z: 2014 John Chambers <jc:trillian.mit.edu> (added dance description)
N: The 2nd strain has initial repeat but no final repeat; not fixed. The dance implies not to repeat it.
M: 2/4
L: 1/16
K: G
% - - - - - - - - - - - - - - - - - - - - - - - - - - - - -
|:\
g2d2d2d2 | B3cd2d2 | g2bg d2c2 | B3cd2d2 |\
c2ce B2Bd | A2AB {c}B2AG | F2G2 {B}A2GF | G4 G,4 :|
|:\
g3ab2b2 | e3fg2g2 | gfba gfed | ^cdec A4 |\
gfga babg | fefg agaf | fege d2^c2 | d3e dcBA |
g2d2d2d2 | B3cd2d2 | g2bg d2c2 | B3cd2d2 |\
c2ce B2Bd | A2Ac {c}B2AG | F2G2 {B}A2GF | G4 G4 |]
% - - - - - - - - - - Dance description - - - - - - - - - -
%%begintext align
%% First and 2 Cu: change sides back again .|.
%% lead down the middle up again and cast of
%% :|. hands across and back again Allemand
%% with your Partner .|:
%%endtext

%%sep 1 1 500
%%sep 1 1 500
